X:1
T:Title
%%score { ( 1 3 ) | 2 }
L:1/8
M:9/8
K:Eb
V:1 treble nm="Grand Piano"
V:3 treble 
V:2 treble 
V:1
 z3 z3[Q:1/4=113] B2 A | [EG]6 z3 | [B,EG]3 [B,DF]3 F2 G | [FA]6 z3 |[M:3/4] [EGB]6 |[M:3/8] B2 B | %6
[M:9/8] [Ge]6 z3 | [Fd]3 [Ec]3 c2 c | [DB]3- [DB]2 [C=A] [Fd]2 [Ec] |[M:3/4] [DB]6 |[M:3/8] B2 B | %11
[M:9/8] B6 z3 | [Ge]3 [Ge]3 e2 e | d6 z3 |[M:3/4] [Ec]6 |[M:3/8] c2 c |[M:9/8] F6 z3 | %17
 [EG]3 [GB]3 [_Ge]2 [Ge] | [Ge]6 z3 |[M:3/4] [G,B,E]6 |] %20
V:2
 z3 z3 G2 F | E,2 E, E,2 E, D,2 E, | B,,3 B,,3 D2 E | B,,2 B,, B,,2 B,, B,,2 B,, |[M:3/4] E,6 | %5
[M:3/8][K:treble] G2 G |[M:9/8][K:bass] [C,C]2 C, C,2 [G,=B,F] G,,2 [G,,G,] | %7
 [C,G,]3 [C,G,]3 E2 E | F,2 F, F,2 F, [F,,F,]2 [F,,F,] |[M:3/4] [B,,F,]6 |[M:3/8] z3 | %11
[M:9/8] [B,,F,]2 [B,,G,] [B,,A,]2 [B,,F,] [B,,B,]2 [B,,B,] | [E,B,]3 [E,B,]3 z3 | %13
 [G,=B,F]2 [G,B,] [G,B,]2 [G,B,F][K:bass] [G,,B,G]2 [G,,G,] |[M:3/4] [C,G,]6 |[M:3/8] z3 | %16
[M:9/8] [B,,B,]2 [B,,B,] [B,,B,]2 [B,,B,] [B,,F,]2 [B,,B,] | [E,B,]3 [E,G,]3 [=B,,=A,]2 [B,,A,] | %18
 [B,,B,]2 B,, B,,2 B,, B,,2 B,, |[M:3/4] E,6 |] %20
V:3
 x9 | B,2 B, B,2 [B,GB] [B,FA]2 [B,EG] | x9 | D2 D D2 [D=EG] [DFA]2 [D_G=A] |[M:3/4] x6 | %5
[M:3/8] x3 |[M:9/8] z2 C C2 d [CEc]2 [D=B] | x9 | x9 |[M:3/4] x6 |[M:3/8] x3 | %11
[M:9/8] D2 E F2 [AB] [Ac]2 [Ad] | x9 | z2 F F2 G e2 [Fd] |[M:3/4] x6 |[M:3/8] x3 | %16
[M:9/8] D2 D D2 [DF] [DB]2 [DA] | x9 | z2 B, B,2 [B,EG] [B,DG]2 [A,DF] |[M:3/4] x6 |] %20

